src/assets/icons/amex.svg

<?xml version="1.0" encoding="UTF-8"?>
<svg width="32px" height="20px" viewBox="0 0 32 20" version="1.1" xmlns="http://www.w3.org/2000/svg" xmlns:xlink="http://www.w3.org/1999/xlink">
    <!-- Generator: Sketch 53 (72520) - https://sketchapp.com -->
    <title>amex</title>
    <desc>Created with Sketch.</desc>
    <g id="Page-1" stroke="none" stroke-width="1" fill="none" fill-rule="evenodd">
        <g id="amex" fill-rule="nonzero">
            <path d="M29.6,2.02293374e-07 C28,3.53289176e-07 11.0601562,-3.20636746e-07 1.6,2.02293374e-07 C0.8,2.46515064e-07 0,0.800000202 0,1.6000002 L0,17.6000002 C-9.26e-08,19.2000002 0.8,20.0000002 2.4,20.0000002 C11.3246419,20.0000002 28,20.0000004 29.6,20.0000002 C31.2,20.0000002 32,19.2000002 32,17.6000002 L32,2.4000002 C32,0.800000202 31.2,2.02293374e-07 29.6,2.02293374e-07 Z" id="Rectangle-1" fill="#306FC5"></path>
            <path d="M32,13.5612642 C31.9778399,13.5322743 31.9567344,13.5035836 31.9239276,13.4777266 C31.7223698,13.2701128 31.3918102,13.1849877 30.8965992,13.1727617 L30.4058444,13.1596216 C30.2550186,13.1596216 30.1524114,13.1499093 30.0568886,13.1166591 C29.9395416,13.0746107 29.8588728,12.9773739 29.8588728,12.8344322 C29.8588728,12.7142288 29.895665,12.623162 29.991188,12.5618034 C30.0833974,12.4995307 30.1928602,12.4933605 30.3576258,12.4933605 L32,12.4933605 L32,13.5612642 Z M32,15.9802017 C31.6382127,16.1526722 31.1647733,16.220126 30.6800728,16.220126 L28.3338194,16.220126 L28.3338194,15.8817966 C28.0619904,16.0999225 27.5711214,16.220126 27.101505,16.220126 L19.704648,16.220126 L19.704648,14.9982095 C19.704648,14.8484121 19.6899082,14.842242 19.5399966,14.842242 L19.4225354,14.842242 L19.4225354,16.2202403 L16.9876147,16.2202403 L16.9876147,14.7933379 C16.5800426,14.9695297 16.1180818,14.9852979 15.7263921,14.979242 L15.4361669,14.979242 L15.4361669,16.2229826 L12.484097,16.2203545 L11.7583056,15.3983546 L10.9878377,16.2203545 L6.19866526,16.2203545 L6.19866526,10.9332288 L11.0797043,10.9332288 L11.7800153,11.7424315 L12.5277451,10.9332288 L15.795292,10.9332288 C16.1730418,10.9332288 16.7927982,10.9727634 17.071483,11.24265 L17.071483,10.9332288 L19.9911026,10.9332288 C20.2654452,10.9332288 20.8598356,10.9885316 21.212105,11.24265 L21.212105,10.9332288 L25.6383816,10.9332288 L25.6383816,11.24265 C25.85845,11.031494 26.3237244,10.9332288 26.7200988,10.9332288 L29.1987818,10.9332288 L29.1987818,11.24265 C29.4589562,11.0543464 29.826308,10.9332288 30.3320312,10.9332288 L32,10.9332288 L32,11.6871287 L30.2041722,11.6871287 C29.2539704,11.6871287 28.9050146,12.2656366 28.9050146,12.8152363 C28.9050146,14.0143004 29.9657076,13.9591119 30.8159302,13.9880202 C30.9736116,13.9880202 31.0692488,14.0143004 31.1349494,14.0721169 C31.201564,14.1246774 31.2455548,14.2123163 31.2455548,14.3226932 C31.2455548,14.4261002 31.201564,14.5112253 31.1384916,14.5698417 C31.0657066,14.6409126 30.9448176,14.6636507 30.7720536,14.6636507 L29.030474,14.6636507 L29.030474,15.4761669 L30.779138,15.4761669 C31.3524816,15.4761669 31.7777731,15.3169581 32,15.00284 L32,15.9802018 Z M-1.33226763e-15,8.95969764 L0.794078354,8.95969764 L1.1455479,8.11473104 L3.03086892,8.11473104 L3.37879634,8.95969764 L5.22046932,8.95969764 L5.22046932,5.99014564 L6.53688044,8.95969764 L7.3319146,8.95969764 L8.64489786,5.99277368 L8.64832572,8.95969764 L9.57658922,8.95969764 L9.57647496,8.95969764 L9.57647496,5.17145928 L8.06890372,5.17145928 L6.98033078,7.74132322 L5.79532084,5.17145928 L4.31745768,5.17145928 L4.31745768,8.75813968 L2.77743606,5.17145928 L1.43211669,5.17145928 L-1.08246745e-15,8.51726978 L-1.33226763e-15,6.47418511 L0.89657126,4.42030168 L3.25790726,4.42030168 L3.5620724,5.0442858 L3.5620724,4.42030168 L6.33086626,4.42030168 L6.93656848,5.78493132 L7.52638832,4.42030168 L16.3168975,4.42030168 C16.7164713,4.42030168 17.0758249,4.49480042 17.3395413,4.72880876 L17.3395413,4.42030168 L19.745668,4.42030168 L19.745668,4.72880876 C20.1600958,4.5017704 20.6731316,4.42030168 21.2567814,4.42030168 L24.7434826,4.42030168 L25.066958,5.0442858 L25.066958,4.42030168 L27.6482482,4.42030168 L28.0005176,5.0442858 L28.0005176,4.42030168 L30.516107,4.42030168 L30.516107,9.703771 L27.9742372,9.703771 L27.4938804,8.90450916 L27.4938804,9.703771 L24.3218562,9.703771 L23.9773568,8.86234652 L23.1963768,8.86234652 L22.8441074,9.703771 L21.1980508,9.703771 C20.5521284,9.703771 20.0612594,9.55134566 19.745668,9.38223808 L19.745668,9.703771 L15.8329985,9.703771 L15.8329985,8.5048211 C15.8329985,8.33559926 15.8030618,8.32611552 15.7005689,8.3225734 L15.5541995,8.3225734 L15.5577416,9.703771 L7.99269104,9.703771 L7.99269104,9.05087862 L7.7209763,9.70651328 L6.1407345,9.70651328 L5.86901974,9.06047662 L5.86901974,9.703771 L2.824969,9.703771 L2.47704158,8.86234652 L1.69606163,8.86234652 L1.34722011,9.703771 L-1.33226763e-15,9.703771 L-1.33226763e-15,8.95969764 Z M2.70396568,7.3250672 L1.46799492,7.3250672 L2.08420924,5.81486792 L2.70396568,7.3250672 Z M16.3571177,6.72370692 C16.2326865,6.79923402 16.0855172,6.80174778 15.9092111,6.80174778 L14.809212,6.80174778 L14.809212,5.9603233 L15.9241794,5.9603233 C16.0819751,5.9603233 16.2466265,5.96740754 16.3535756,6.0286519 C16.4710368,6.0838404 16.5437073,6.2013016 16.5437073,6.36355348 C16.5437073,6.52911894 16.4745789,6.66234828 16.3571177,6.72370692 C16.3571177,6.72370692 16.4745789,6.66234828 16.3571177,6.72370692 Z M24.204395,7.3250672 L22.9545986,7.3250672 L23.577783,5.81486792 L24.204395,7.3250672 Z M13.2762746,8.95969764 L13.2762746,8.17620394 L11.1569453,8.17620394 L11.1569453,7.41967602 L13.2254281,7.41967602 L13.2254281,6.6431523 L11.1569453,6.6431523 L11.1569453,5.9603233 L13.2762746,5.9603233 L13.2762746,5.17145928 L10.2514199,5.17145928 L10.2514199,8.95969764 L13.2762746,8.95969764 Z M17.5412136,6.1917036 C17.5412136,5.76916318 17.5412136,6.1917036 17.5412136,6.1917036 C17.5412136,5.76916318 17.3694779,5.52212898 17.0830234,5.35290714 C16.7902845,5.1836853 16.449327,5.17145928 15.9865664,5.17145928 L13.9039151,5.17145928 L13.9039151,8.95969764 L14.8093263,8.95969764 L14.8093263,7.58181364 L15.7813521,7.58181364 C16.1073412,7.58181364 16.3090134,7.6107219 16.4413287,7.74395124 C16.6060943,7.92619894 16.5842703,8.25401628 16.5842703,8.48196872 L16.5876982,8.95969764 L17.5009934,8.95969764 L17.5009934,8.21551002 C17.5009934,7.8771806 17.4789408,7.70887284 17.3510818,7.520455 C17.2705272,7.41007802 17.1013053,7.27684868 16.9031752,7.20143584 C17.1380976,7.1077411 17.5412136,6.7956919 17.5412136,6.1917036 Z M18.9902827,8.95969764 L18.9902827,5.17145928 L18.0663612,5.17145928 L18.0663612,8.95969764 L18.9902827,8.95969764 Z M29.7089612,8.95969764 L29.7089612,5.17157354 L28.7814974,5.17157354 L28.7814974,7.80988034 L27.1898294,5.17157354 L25.8111456,5.17157354 L25.8111456,8.75471184 L24.278094,5.17157354 L22.9213484,5.17157354 L21.6451574,8.15072354 L21.2384994,8.15072354 C21.0001492,8.15072354 20.7468306,8.1052473 20.607431,7.95533572 C20.4391234,7.7641756 20.3584544,7.47155092 20.3584544,7.06569272 C20.3584544,6.6686327 20.4643752,6.3670956 20.618743,6.207586 C20.798477,6.03230828 20.9850666,5.98317568 21.315512,5.98317568 L22.173733,5.98317568 L22.173733,5.17145928 L21.2971158,5.17145928 C20.6731316,5.17145928 20.214713,5.31085878 19.921974,5.6131957 C19.5327981,6.0190539 19.4338473,6.53266106 19.4338473,7.09448672 C19.4338473,7.7833716 19.5994128,8.21905214 19.9176322,8.54069934 C20.2332234,8.86234652 20.7904786,8.95969764 21.2306154,8.95969764 L22.2901658,8.95969764 L22.6320374,8.11473104 L24.5130164,8.11473104 L24.8654,8.95969764 L26.7094726,8.95969764 L26.7094726,6.11640502 L28.4258002,8.95969764 L29.7089612,8.95969764 Z M28.3959778,13.4777266 C28.1908778,13.2699985 28.3959778,13.4777266 28.3959778,13.4777266 C28.1908778,13.2699985 27.8534624,13.1849877 27.3619078,13.1729902 L26.8744666,13.1598501 C26.7202132,13.1598501 26.617606,13.1501378 26.522083,13.1168876 C26.408164,13.0748392 26.323953,12.9776024 26.323953,12.8346608 C26.323953,12.7144573 26.3607452,12.6233906 26.4599246,12.5620319 C26.5509914,12.4997592 26.6580546,12.4935891 26.822706,12.4935891 L28.483731,12.4935891 L28.483731,11.6871287 L26.6684526,11.6871287 C25.7191648,11.6871287 25.3738654,12.2656366 25.3738654,12.8152363 C25.3738654,14.0143004 26.43433,13.9591119 27.2811248,13.9880202 C27.4388062,13.9880202 27.534329,14.0143004 27.6035718,14.0721169 C27.6657302,14.1246774 27.714063,14.2123163 27.714063,14.3226932 C27.714063,14.4261002 27.6693866,14.5112253 27.6071138,14.5698417 C27.530787,14.6409126 27.4089838,14.6636507 27.2372482,14.6636507 L25.4807002,14.6636507 L25.4807002,15.4761669 L27.2443324,15.4761669 C28.1575134,15.4761669 28.6667786,15.0956749 28.6667786,14.2805306 C28.6667786,13.8905548 28.572284,13.6602029 28.3959778,13.4777266 Z M20.2253394,13.2437183 C20.1042218,13.315589 19.9544244,13.3217592 19.7782326,13.3217592 L18.6782335,13.3217592 L18.6782335,12.4707367 L19.7932009,12.4707367 C19.9544244,12.4707367 20.1157622,12.4741645 20.2253394,12.5391796 C20.3426864,12.6005382 20.4128432,12.7178851 20.4128432,12.8800227 C20.4128432,13.0421603 20.3426864,13.1727617 20.2253394,13.2437183 C20.2253394,13.2437183 20.3426864,13.1727617 20.2253394,13.2437183 Z M20.7721968,13.7152771 C21.010547,13.6206682 20.7721968,13.7152771 20.7721968,13.7152771 C21.010547,13.6206682 21.4138914,13.3120469 21.4140058,12.7072588 C21.4140058,12.2750061 21.2342718,12.038484 20.9485028,11.8658343 C20.6513076,11.7072388 20.3174344,11.6870145 19.8590158,11.6870145 L17.7684804,11.6870145 L17.7684804,15.4761669 L18.6783478,15.4761669 L18.6783478,14.092227 L19.6460316,14.092227 C19.9763628,14.092227 20.178035,14.1246774 20.3103502,14.2604205 C20.478658,14.4366123 20.4567196,14.7741419 20.4567196,15.0020944 L20.4567196,15.4761669 L21.3657872,15.4761669 L21.3657872,14.7250093 C21.3621308,14.3910218 21.3436204,14.2183721 21.2157614,14.0333822 C21.1385204,13.9230052 20.9737546,13.7896616 20.7721968,13.7152771 Z M21.9160724,11.6870145 L21.9160724,15.4761669 L24.9381848,15.4761669 L24.9381848,14.6899309 L22.8178272,14.6865031 L22.8178272,13.9326032 L24.8864242,13.9326032 L24.8864242,13.1595073 L22.8178272,13.1595073 L22.8178272,12.4706224 L24.9381848,12.4706224 L24.9381848,11.6870145 L21.9160724,11.6870145 Z M15.8068325,13.4356783 L14.6366766,13.4356783 L14.6366766,12.4707367 L15.8173446,12.4707367 C16.1442478,12.4707367 16.3711719,12.603966 16.3711719,12.9353255 C16.3711719,13.2630286 16.1547599,13.4356783 15.8068325,13.4356783 Z M13.7348076,15.1315531 L12.3445833,13.5881036 L13.7348076,12.0936725 L13.7348076,15.1315531 Z M10.144585,14.6865031 L7.91830656,14.6865031 L7.91830656,13.9326032 L9.90623474,13.9326032 L9.90623474,13.1595073 L7.91830656,13.1595073 L7.91830656,12.4706224 L10.1884616,12.4706224 L11.1788836,13.5748492 L10.144585,14.6865031 Z M17.343312,12.9353255 C17.343312,11.8859444 17.343312,12.9353255 17.343312,12.9353255 C17.343312,11.8859444 16.5359375,11.6870145 15.8173446,11.6870145 L12.9240053,11.6870145 L11.7722455,12.9290411 L10.6581922,11.6870145 L7.01632328,11.6870145 L7.01632328,15.4761669 L10.6030037,15.4761669 L11.7617334,14.2218 L12.8767008,15.4761669 L14.6366766,15.4761669 L14.6366766,14.205232 L15.766498,14.205232 C16.5579901,14.205232 17.343312,13.9879059 17.343312,12.9353255 Z" id="Combined-Shape" fill="#FFFFFF"></path>
        </g>
    </g>
</svg>

<svg width="32" height="20" xmlns="http://www.w3.org/2000/svg"><g fill-rule="nonzero" fill="none"><path d="M29.6 0h-28C.8 0 0 .8 0 1.6v16C0 19.2.8 20 2.4 20h27.2c1.6 0 2.4-.8 2.4-2.4V2.4C32 .8 31.2 0 29.6 0z" fill="#306FC5"/><path d="M32 13.561c-.022-.029-.043-.057-.076-.083-.202-.208-.532-.293-1.027-.305l-.491-.013c-.151 0-.254-.01-.35-.043a.286.286 0 01-.197-.283c0-.12.037-.21.132-.272.092-.062.202-.069.367-.069H32v1.068zm0 2.42c-.362.172-.835.24-1.32.24h-2.346v-.34c-.272.219-.763.34-1.232.34h-7.397v-1.223c0-.15-.015-.156-.165-.156h-.117v1.378h-2.435v-1.427c-.408.177-.87.192-1.262.186h-.29v1.244l-2.952-.003-.726-.822-.77.822h-4.79v-5.287h4.882l.7.81.748-.81h3.267c.378 0 .998.04 1.276.31v-.31h2.92c.274 0 .869.056 1.221.31v-.31h4.426v.31c.22-.212.686-.31 1.082-.31H29.2v.31c.26-.189.627-.31 1.133-.31H32v.754h-1.796c-.95 0-1.299.579-1.299 1.128 0 1.2 1.06 1.144 1.91 1.173.159 0 .254.026.32.084.067.053.11.14.11.25a.333.333 0 01-.107.248c-.072.07-.193.094-.366.094H29.03v.812h1.75c.572 0 .998-.159 1.22-.473v.977zM0 8.96h.794l.352-.845H3.03l.348.845H5.22V5.99l1.317 2.97h.795l1.313-2.967.003 2.967h.929V5.17H8.068L6.98 7.741l-1.185-2.57H4.317v3.587l-1.54-3.587H1.432L0 8.517V6.474L.897 4.42h2.36l.305.624V4.42h2.769l.606 1.365.59-1.365h8.79c.4 0 .759.075 1.023.309V4.42h2.406v.309c.414-.227.927-.309 1.51-.309h3.487l.324.624V4.42h2.581l.353.624V4.42h2.515v5.284h-2.542l-.48-.8v.8h-3.172l-.345-.842h-.78l-.353.842h-1.646c-.646 0-1.137-.153-1.452-.322v.322h-3.913v-1.2c0-.168-.03-.178-.132-.181h-.147l.004 1.38H7.993v-.652l-.272.656h-1.58l-.272-.647v.644H2.825l-.348-.842h-.78l-.35.842H0V8.96zm2.704-1.635H1.468l.616-1.51.62 1.51zm13.653-.601c-.124.075-.271.078-.448.078h-1.1V5.96h1.115c.158 0 .323.007.43.069.117.055.19.172.19.335 0 .165-.07.298-.187.36 0 0 .118-.062 0 0zm7.847.601h-1.25l.624-1.51.626 1.51zM13.276 8.96v-.784h-2.12V7.42h2.07v-.777h-2.07V5.96h2.12v-.789h-3.025V8.96h3.025zm4.265-2.768c0-.423 0 0 0 0 0-.423-.172-.67-.458-.84-.293-.168-.634-.18-1.096-.18h-2.083V8.96h.905V7.582h.972c.326 0 .528.029.66.162.165.182.143.51.143.738l.004.478h.913v-.744c0-.339-.022-.507-.15-.696a1.05 1.05 0 00-.448-.319c.235-.093.638-.405.638-1.01zm1.45 2.768V5.17h-.925V8.96h.924zm10.718 0V5.172h-.928V7.81L27.19 5.172H25.81v3.583l-1.533-3.583h-1.357L21.645 8.15h-.407c-.238 0-.491-.046-.63-.196-.169-.19-.25-.483-.25-.89 0-.396.106-.698.26-.857.18-.176.367-.225.698-.225h.858v-.812h-.877c-.624 0-1.082.14-1.375.442-.39.406-.488.92-.488 1.481 0 .69.165 1.125.484 1.447.315.321.872.419 1.313.419h1.06l.341-.845h1.881l.352.845h1.844V6.116l1.717 2.844h1.283zm-1.313 4.518c-.205-.208 0 0 0 0-.205-.208-.543-.293-1.034-.305l-.488-.013c-.154 0-.256-.01-.352-.043a.29.29 0 01-.198-.282c0-.12.037-.212.136-.273.091-.062.198-.068.363-.068h1.66v-.807h-1.815c-.949 0-1.294.579-1.294 1.128 0 1.2 1.06 1.144 1.907 1.173.158 0 .253.026.323.084.062.053.11.14.11.25a.336.336 0 01-.107.248c-.076.07-.198.094-.37.094h-1.756v.812h1.763c.914 0 1.423-.38 1.423-1.195 0-.39-.095-.62-.271-.803zm-8.17-.234c-.122.072-.272.078-.448.078h-1.1v-.851h1.115c.161 0 .323.003.432.068.118.062.188.179.188.341 0 .162-.07.293-.188.364 0 0 .118-.071 0 0zm.546.471c.239-.094 0 0 0 0 .239-.094.642-.403.642-1.008 0-.432-.18-.669-.465-.841-.298-.159-.632-.179-1.09-.179h-2.09v3.79h.91v-1.385h.967c.33 0 .532.033.664.168.169.177.147.514.147.742v.474h.909v-.751c-.004-.334-.022-.507-.15-.692a.984.984 0 00-.444-.318zm1.144-2.028v3.79h3.022v-.787l-2.12-.003v-.754h2.068v-.773h-2.068v-.69h2.12v-.783h-3.022zm-6.11 1.749h-1.17v-.965h1.181c.327 0 .554.133.554.464 0 .328-.216.5-.564.5zm-2.071 1.696l-1.39-1.544 1.39-1.494v3.038zm-3.59-.445H7.918v-.754h1.988v-.773H7.918v-.69h2.27l.99 1.105-1.033 1.112zm7.198-1.752c0-1.05 0 0 0 0 0-1.05-.807-1.248-1.526-1.248h-2.893l-1.152 1.242-1.114-1.242H7.016v3.79h3.587l1.159-1.255 1.115 1.254h1.76v-1.27h1.13c.791 0 1.576-.218 1.576-1.27z" fill="#FFF"/></g></svg>
